static/Icons/arrow-circle-left.svg

<svg fill="none" height="24" viewBox="0 0 24 24" width="24" xmlns="http://www.w3.org/2000/svg"><g fill="#292d32"><path d="m12 22c5.5228 0 10-4.4772 10-10 0-5.52285-4.4772-10-10-10-5.52285 0-10 4.47715-10 10 0 5.5228 4.47715 10 10 10z" opacity=".4"/><path d="m13.2599 16.2802c-.19 0-.38-.07-.53-.22l-3.52998-3.53c-.29-.29-.29-.77 0-1.06l3.52998-3.53004c.29-.29.77-.29 1.06 0s.29.77 0 1.06l-3 3.00004 3 3c.29.29.29.77 0 1.06-.14.15-.33.22-.53.22z"/></g></svg>

<svg width="24" height="24" viewBox="0 0 24 24" fill="none" xmlns="http://www.w3.org/2000/svg">
<path opacity="0.4" d="M12 22C17.5228 22 22 17.5228 22 12C22 6.47715 17.5228 2 12 2C6.47715 2 2 6.47715 2 12C2 17.5228 6.47715 22 12 22Z" fill="#292D32"/>
<path d="M13.2599 16.2802C13.0699 16.2802 12.8799 16.2102 12.7299 16.0602L9.19992 12.5302C8.90992 12.2402 8.90992 11.7602 9.19992 11.4702L12.7299 7.94016C13.0199 7.65016 13.4999 7.65016 13.7899 7.94016C14.0799 8.23016 14.0799 8.71016 13.7899 9.00016L10.7899 12.0002L13.7899 15.0002C14.0799 15.2902 14.0799 15.7702 13.7899 16.0602C13.6499 16.2102 13.4599 16.2802 13.2599 16.2802Z" fill="#292D32"/>
</svg>
